X: 38182
T: Spotted Dog, The
R: jig
M: 6/8
K: Amajor
|:A2A ABc|BAF AFE|F2B Bce|f/g/af ecA|
A2A ABc|BAF Ace|f2a e2a|1 ABc BAF:|2 ABc B2A||
|:c2e ece|fec ecA|c2e ecA|EFA B2A|
c2e ece|fec e2a|f2a e2a|1 ABc B2A:|2 ABc BAF||

